packages/core/src/svgs/networks/mono/eos.svg

<svg width="24" height="24" viewBox="0 0 24 24" fill="none" xmlns="http://www.w3.org/2000/svg">
<path d="M12.0004 2L7.32036 8.44002L5.36035 17.9601L12.0004 22L18.6404 17.9601L16.6404 8.40002L12.0004 2ZM6.44036 17.5201L7.92036 10.28L11.2804 20.4801L6.44036 17.5201ZM8.40036 8.64002L12.0004 3.68L15.6004 8.64002L12.0004 19.5201L8.40036 8.64002ZM12.6804 20.4801L16.0404 10.28L17.5204 17.5201L12.6804 20.4801Z" fill="white"/>
</svg>

<svg xmlns="http://www.w3.org/2000/svg" width="24" height="24" fill="none" viewBox="0 0 24 24">
    <path fill="#fff" d="M12 2 7.32 8.44l-1.96 9.52L12 22l6.64-4.04-2-9.56zM6.44 17.52l1.48-7.24 3.36 10.2zM8.4 8.64 12 3.68l3.6 4.96L12 19.52zm4.28 11.84 3.36-10.2 1.48 7.24z"/>
</svg>
